X: 360
T: Miss Stuarts Reel
%R: reel
Z: 2014 John Chambers <jc:trillian.mit.edu>
B: Preston "Twenty four Country Dances for the Year 1799" p.160 #2
F: http://www.vwml.org/browse/browse-collections-dance-tune-books/browse-prestons1799# 2014-8-10
M: C|
L: 1/8
K: F
C |\
F<FAF {EF}GFEC | F<FAB {AB}cBAf |\
af{d}c{B}A cGGc | dfeg f3 :||: C | ffaf efce |
fcaf gfde |[1 fafc dBfd | cf e/f/g/e/ fF F :|\
[2 fbac defB | Acde fF F |]
% - - - - - - - - - - - - - - - - - - - - - - - - -
%%begintext align
%% Cast of two Cu: .| up again :| lead down the
%% middle :|. up again :|: turn Corners :|| lead out
%% sides :||:
%%endtext
% - - - - - - - - - - - - - - - - - - - - - - - - -

%%sep 1 1 500
%%sep 1 1 500
